X: 1
T: Stool of Repentance
R: jig
S: Fiddle Hell Online 2021-04-15 Rodney Miller jam
Z: 2021 John Chambers <jc:trillian.mit.edu>
M: 6/8
L: 1/8
K: A
|:\
"A"a2e c2e | agf e2c |1,3 "D"aff f2e | fag "E"f2e :|2,4 "D"d2e f2e | fac "E"B2A :|
|:\
"A"cAA eAA | cAA edc | "Bm"dBB fBB | dBB "E"fed |
"A"cAA eAA | cag a2e | "D"d2e f2e | fac "E"B2A :|
